X: 33265
T: Punch In The Fèis
R: reel
M: 4/4
K: Amajor
EA (3AAA BABc-|cBBA BAFA-|AdcA BAcd-|dccA BAFA|
EA (3AAA BABc-|cBBA BABc|dF (3FFF =F^FAB|[M:2/4] AFED:|
|:[M:4/4] Ed (3ddd BccB|cefc BAAe|fcef cd (3ddd|dcde dcAE|
Fd (3ddd BccB|cefc =c^cec|dF (3FFF =F^FAB|[M:2/4] AFED:|

